assets/icons/standard/visualforce_page.svg

<?xml version="1.0"?><svg xmlns="http://www.w3.org/2000/svg" width="100" height="100" viewBox="0 0 100 100"><g fill="#fff"><path d="m55.4 53.6c-0.6 0-1.2-0.5-1.2-1.2v-7.3c0-0.6 0.5-1.2 1.2-1.2h7.5c0.6 0 1.2 0.5 1.2 1.2v7.3c0 0.6-0.5 1.2-1.2 1.2h-7.5z m3.2 4.3l-4.3 4.7c-0.3 0.3-0.3 0.7 0 1l4.3 4.7c0.3 0.3 0.8 0.3 1.1 0l4.3-4.7c0.3-0.3 0.3-0.7 0-1l-4.3-4.7c-0.3-0.3-0.8-0.3-1.1 0z"></path><circle cx="40.7" cy="63" r="4.9"></circle><path d="m36.4 45.6l3.8-2.2c0.3-0.2 0.8-0.2 1.1 0l3.8 2.2c0.3 0.2 0.6 0.6 0.6 1v4.3c0 0.4-0.2 0.8-0.6 1l-3.8 2.2c-0.3 0.2-0.8 0.2-1.1 0l-3.8-2.2c-0.3-0.2-0.6-0.6-0.6-1v-4.3c0-0.4 0.2-0.8 0.6-1z m37.4-25.6h-47.6c-3.4 0-6.2 2.8-6.2 6.2v47.6c0 3.4 2.8 6.2 6.2 6.2h47.6c3.4 0 6.2-2.8 6.2-6.2v-47.6c0-3.4-2.8-6.2-6.2-6.2z m0 51.7c0 1.2-0.9 2.1-2.1 2.1h-43.4c-1.1 0-2.1-0.9-2.1-2.1v-33.5h47.6v33.5z m0-39.5h-47.6v-3.9c0-1.2 0.9-2.1 2.1-2.1h43.4c1.1 0 2.1 0.9 2.1 2.1v3.9z"></path></g></svg>

<svg xmlns="http://www.w3.org/2000/svg" x="0px" y="0px"
	 width="100px" height="100px" viewBox="0 0 100 100" enable-background="new 0 0 100 100" xml:space="preserve">
<g>
	<path fill="#FFFFFF" d="M55.4,53.6c-0.6,0-1.2-0.5-1.2-1.2v-7.3c0-0.6,0.5-1.2,1.2-1.2h7.5c0.6,0,1.2,0.5,1.2,1.2v7.3
		c0,0.6-0.5,1.2-1.2,1.2H55.4z"/>
	<path fill="#FFFFFF" d="M58.6,57.9l-4.3,4.7c-0.3,0.3-0.3,0.7,0,1l4.3,4.7c0.3,0.3,0.8,0.3,1.1,0l4.3-4.7c0.3-0.3,0.3-0.7,0-1
		l-4.3-4.7C59.4,57.6,58.9,57.6,58.6,57.9z"/>
	<circle fill="#FFFFFF" cx="40.7" cy="63" r="4.9"/>
	<path fill="#FFFFFF" d="M36.4,45.6l3.8-2.2c0.3-0.2,0.8-0.2,1.1,0l3.8,2.2c0.3,0.2,0.6,0.6,0.6,1v4.3c0,0.4-0.2,0.8-0.6,1l-3.8,2.2
		c-0.3,0.2-0.8,0.2-1.1,0l-3.8-2.2c-0.3-0.2-0.6-0.6-0.6-1v-4.3C35.8,46.2,36,45.8,36.4,45.6z"/>
	<path fill="#FFFFFF" d="M73.8,20H26.2c-3.4,0-6.2,2.8-6.2,6.2v47.6c0,3.4,2.8,6.2,6.2,6.2h47.6c3.4,0,6.2-2.8,6.2-6.2V26.2
		C80,22.8,77.2,20,73.8,20z M73.8,71.7c0,1.2-0.9,2.1-2.1,2.1H28.3c-1.1,0-2.1-0.9-2.1-2.1V38.2h47.6V71.7z M73.8,32.2H26.2v-3.9
		c0-1.2,0.9-2.1,2.1-2.1h43.4c1.1,0,2.1,0.9,2.1,2.1V32.2z"/>
</g>
</svg>
